X:1
T:Big Ben, 10.7.10.7 D
T:Big Ben, 10.7.10.7 D
T:Louise Shephard, 1897
T:Public Domain Courtesy of the Cyber Hymnal™
C:Louise Shephard, 1897
Z:Public Domain
Z:Courtesy of the Cyber Hymnal™
%%score ( 1 2 ) ( 3 4 )
L:1/8
Q:1/4=105
M:4/4
K:Eb
V:1 treble 
V:2 treble 
V:3 bass 
V:4 bass 
V:1
 E>[EG] | [GB]2 [GB]2 [GB]2 [^F=A][GB] | [Ac]2 [Ae]2 [GB]2 [EG]>[EG] | [EG]2 [EB]2 [FA]2 [EG]2 | %4
 [DF]6 E>[EF] | [EG]2 [FA]2 [GB]2 [G=B][FB] | [Ec]2 [Ec]2 !fermata![Ee]2 E[EF] | %7
 [EG]2 [GB]2 [EG]2 [DF]2 | E6 z2 | [GB]>[GB] [GB][Ac] [GB]2 [EG][GB] | [Ac]2 [Ac]2 [GB]4 | %11
 [FA]2 [FA]2 [EG]3 [Ec] | [EB]2 [EG]2 [DF]2 E>[DF] | [EG]2 [EG]2 [EA]2 [EG][EA] | %14
 [EB]2 [EB]2 !fermata![Ee]2 E>[EF] | [EG]2 [EB]2 [EG]2 [DF]2 | [B,E]6 |] %17
V:2
 E3/2 x/ | x8 | x8 | x8 | x6 E3/2 x/ | x8 | x6 E x | x8 | E6 x2 | x8 | x8 | x8 | x6 E3/2 x/ | x8 | %14
 x6 E3/2 x/ | x8 | x6 |] %17
V:3
 [E,G,]>[E,B,] | [E,E]2 [E,E]2 [E,E]2 [E,E][E,E] | [A,E]2 [A,C]2 [E,E]2 [E,B,]>[E,B,] | %3
 [E,B,]2 [E,G,]2 [D,B,]2 [E,B,]2 | [B,,B,]6 [E,G,]>[E,A,] | [E,B,]2 [E,B,]2 [E,E]2 [G,D][G,D] | %6
 [A,C]2 [A,C]2 !fermata![A,C]2 [=A,C][A,C] | B,2 B,2 [B,,B,]2 [B,,A,]2 | [E,G,]6 z2 | %9
 [E,B,]>[E,B,] [E,B,][E,B,] [E,B,]2 [E,B,][E,E] | [A,E]2 [A,E]2 [E,E]4 | %11
 [D,B,]2 [D,B,]2 [E,B,]3 [E,A,] | [E,G,]2 [E,B,]2 B,2 [G,B,]>[F,B,] | %13
 [E,B,]2 [_D,B,]2 [C,A,]2 [B,,B,][A,,C] | [G,,B,]2 [G,,A,]2 !fermata![A,,C]2 [=A,C]>[A,C] | %15
 B,2 [B,,G,]2 [B,,B,]2 [B,,A,]2 | [E,G,]6 |] %17
V:4
 x2 | x8 | x8 | x8 | x8 | x8 | x8 | B,2 B,2 x4 | x8 | x8 | x8 | x8 | x4 (B,,A,) x2 | x8 | x8 | %15
 B,2 x6 | x6 |] %17

